src/topics/icons/invision.svg

<svg height="256" preserveAspectRatio="xMidYMid" viewBox="0 0 256 256" width="256" xmlns="http://www.w3.org/2000/svg"><path d="m232.793212 0h-209.5864241c-12.8164849 0-23.2067879 10.390303-23.2067879 23.2067879v209.5864241c0 12.816485 10.390303 23.206788 23.2067879 23.206788h209.5864241c12.816485 0 23.206788-10.390303 23.206788-23.206788v-209.5864241c0-12.8164849-10.390303-23.2067879-23.206788-23.2067879" fill="#dc395f"/><g fill="#fff"><path d="m85.5553939 80.5449697c8.5100606 0 15.6383031-6.6705455 15.6383031-15.4123636 0-8.736-7.1282425-15.4046061-15.6383031-15.4046061s-15.6373333 6.6686061-15.6373333 15.4046061c0 8.7418181 7.1272727 15.4123636 15.6373333 15.4123636"/><path d="m53.1287273 163.065212c-.9183031 3.909818-1.3798788 8.131879-1.3798788 11.576243 0 13.570909 7.3590303 22.580363 22.998303 22.580363 12.9706667 0 23.4850909-7.703273 31.0555155-20.139636l-4.622546 18.553212h25.755152l14.72-59.03903c3.67903-14.948849 10.808242-22.707394 21.618424-22.707394 8.509091 0 13.798788 5.291636 13.798788 14.027636 0 2.531879-.230788 5.288727-1.150061 8.279273l-7.590788 27.136969c-1.15006 3.909819-1.607757 7.822546-1.607757 11.498667 0 12.883394 7.586909 22.306909 23.456 22.306909 13.568969 0 24.377212-8.73503 30.357333-29.664l-10.117818-3.906909c-5.060849 14.021818-9.430303 16.556606-12.879515 16.556606-3.450182 0-5.290667-2.298182-5.290667-6.895515 0-2.069333.461576-4.366545 1.150061-7.132121l7.360969-26.438788c1.838546-6.208 2.52994-11.71297 2.52994-16.770909 0-19.77794-11.960243-30.0993941-26.448485-30.0993941-13.568 0-27.367758 12.2385451-34.265212 25.1190301l5.057939-23.1195149h-39.325091l-5.520485 20.3636359h18.399031l-11.32897 45.360485c-8.897939 19.77794-25.241212 20.098909-27.2921211 19.639273-3.3677576-.759273-5.5214546-2.038303-5.5214546-6.414545 0-2.525091.4596364-6.151758 1.609697-10.525091l17.2499394-68.4237579h-43.6945455l-5.5204848 20.3636359h18.1672727z"/></g></svg>

<?xml version="1.0" encoding="UTF-8" standalone="no"?>
<svg width="256px" height="256px" viewBox="0 0 256 256" version="1.1" xmlns="http://www.w3.org/2000/svg" xmlns:xlink="http://www.w3.org/1999/xlink" preserveAspectRatio="xMidYMid">
	<g>
		<path d="M232.793212,0 L23.2067879,0 C10.390303,0 0,10.390303 0,23.2067879 L0,232.793212 C0,245.609697 10.390303,256 23.2067879,256 L232.793212,256 C245.609697,256 256,245.609697 256,232.793212 L256,23.2067879 C256,10.390303 245.609697,0 232.793212,0" fill="#DC395F"></path>
		<path d="M85.5553939,80.5449697 C94.0654545,80.5449697 101.193697,73.8744242 101.193697,65.1326061 C101.193697,56.3966061 94.0654545,49.728 85.5553939,49.728 C77.0453333,49.728 69.9180606,56.3966061 69.9180606,65.1326061 C69.9180606,73.8744242 77.0453333,80.5449697 85.5553939,80.5449697" fill="#FFFFFF"></path>
		<path d="M53.1287273,163.065212 C52.2104242,166.97503 51.7488485,171.197091 51.7488485,174.641455 C51.7488485,188.212364 59.1078788,197.221818 74.7471515,197.221818 C87.7178182,197.221818 98.2322424,189.518545 105.802667,177.082182 L101.180121,195.635394 L126.935273,195.635394 L141.655273,136.596364 C145.334303,121.647515 152.463515,113.88897 163.273697,113.88897 C171.782788,113.88897 177.072485,119.180606 177.072485,127.916606 C177.072485,130.448485 176.841697,133.205333 175.922424,136.195879 L168.331636,163.332848 C167.181576,167.242667 166.723879,171.155394 166.723879,174.831515 C166.723879,187.714909 174.310788,197.138424 190.179879,197.138424 C203.748848,197.138424 214.557091,188.403394 220.537212,167.474424 L210.419394,163.567515 C205.358545,177.589333 200.989091,180.124121 197.539879,180.124121 C194.089697,180.124121 192.249212,177.825939 192.249212,173.228606 C192.249212,171.159273 192.710788,168.862061 193.399273,166.096485 L200.760242,139.657697 C202.598788,133.449697 203.290182,127.944727 203.290182,122.886788 C203.290182,103.108848 191.329939,92.7873939 176.841697,92.7873939 C163.273697,92.7873939 149.473939,105.025939 142.576485,117.906424 L147.634424,94.7869091 L108.309333,94.7869091 L102.788848,115.150545 L121.187879,115.150545 L109.858909,160.51103 C100.96097,180.28897 84.617697,180.609939 82.5667879,180.150303 C79.1990303,179.39103 77.0453333,178.112 77.0453333,173.735758 C77.0453333,171.210667 77.5049697,167.584 78.6550303,163.210667 L95.9049697,94.7869091 L52.2104242,94.7869091 L46.6899394,115.150545 L64.8572121,115.150545 L53.1287273,163.065212" fill="#FFFFFF"></path>
	</g>
</svg>
